src/components/Header/assets/person.svg

<svg xmlns="http://www.w3.org/2000/svg" fill="#000000" width="25px" viewBox="0 0 56 56"><path d="M 27.9999 51.9063 C 41.0546 51.9063 51.9063 41.0781 51.9063 28 C 51.9063 14.9453 41.0312 4.0937 27.9765 4.0937 C 14.8983 4.0937 4.0937 14.9453 4.0937 28 C 4.0937 41.0781 14.9218 51.9063 27.9999 51.9063 Z M 27.9999 47.9219 C 16.9374 47.9219 8.1014 39.0625 8.1014 28 C 8.1014 16.9609 16.9140 8.0781 27.9765 8.0781 C 39.0155 8.0781 47.8983 16.9609 47.9219 28 C 47.9454 39.0625 39.0390 47.9219 27.9999 47.9219 Z M 27.9999 26.6875 C 31.3983 26.7109 34.1171 23.8047 34.1171 19.9844 C 34.1171 16.4219 31.3983 13.4453 27.9999 13.4453 C 24.6014 13.4453 21.8827 16.4219 21.8827 19.9844 C 21.8827 23.8047 24.6014 26.6641 27.9999 26.6875 Z M 17.0780 39.9766 L 38.8983 39.9766 C 39.8358 39.9766 40.3046 39.3437 40.3046 38.5 C 40.3046 35.8750 36.3671 29.1016 27.9999 29.1016 C 19.6327 29.1016 15.6952 35.8750 15.6952 38.5 C 15.6952 39.3437 16.1640 39.9766 17.0780 39.9766 Z"/></svg>

<svg xmlns="http://www.w3.org/2000/svg" width="25" viewBox="0 0 56 56"><path d="M28 51.906c13.055 0 23.906-10.828 23.906-23.906 0-13.055-10.875-23.906-23.93-23.906C14.899 4.094 4.095 14.945 4.095 28c0 13.078 10.828 23.906 23.906 23.906Zm0-3.984C16.937 47.922 8.1 39.062 8.1 28c0-11.04 8.813-19.922 19.876-19.922 11.039 0 19.921 8.883 19.945 19.922.023 11.063-8.883 19.922-19.922 19.922Zm0-21.234c3.398.023 6.117-2.883 6.117-6.704 0-3.562-2.719-6.539-6.117-6.539-3.399 0-6.117 2.977-6.117 6.54 0 3.82 2.718 6.68 6.117 6.703ZM17.078 39.977h21.82c.938 0 1.407-.633 1.407-1.477 0-2.625-3.938-9.398-12.305-9.398-8.367 0-12.305 6.773-12.305 9.398 0 .844.469 1.477 1.383 1.477Z"/></svg>
